X: 277
T: Broken Bow
C: BB 3/09
N: 022270
M: 4/4
R: hornpipe
Q: 340
K: G
A2 | "G"BGGG DGGG | "G"BABd gfed | "Am"cAAA "C"EGcB | "D"AGFE D3 A|
"G"BGGG "Am"cAAA | "G"dgfg "D7"afdc | "G"BdgB "D"AcBA | "G" B2 GF G2 :|
A2 | "Em"BGEG edBA | "Em"GB "D"AF "Em"E3 E | "D"AFFF dFFF | "D"fed^c d3 e|
"G"gabg "D"fgaf | "C"efge "G"B3 A | "C"cdeg "D"fdfa | "G"g2 gf g2 :|
%%%%%
